images/icons/dark/architecture.svg

<svg height="112" viewBox="0 0 119 112" width="119" xmlns="http://www.w3.org/2000/svg" xmlns:xlink="http://www.w3.org/1999/xlink"><defs><path id="a" d="m51.7962308 52.0930233-12.513014-12.4450233v-8.392186h15.7132867c7.3066783 0 13.4453357-4.991814 15.1973671-11.7209303h17.5386469v20.8372093h-19.6416084v11.7209303zm-16.4413357 13.1157209-9.2590542-9.2087442 9.2590542-9.2087442 9.2603636 9.2087442zm-27.49825174-49.5808372c0-4.3093954 3.52501394-7.81395351 7.85664334-7.81395351h39.2832168c4.3329388 0 7.8566434 3.50455811 7.8566434 7.81395351 0 4.3093953-3.5237046 7.8139535-7.8566434 7.8139535h-39.2832168c-4.3316294 0-7.85664334-3.5045582-7.85664334-7.8139535zm68.09090904 48.1860465h31.4265736v-15.627907h-31.4265736zm-68.09090904 40.3720935h54.99650354v-15.6279075h-54.99650354zm107.37412564-32.55814v-31.255814h-19.6416082v-28.6511628h-25.3952902c-1.7520314-6.72911625-7.8906888-11.7209302-15.1973671-11.7209302h-39.2832168c-8.66456817 0-15.7132867 7.0104186-15.7132867 15.627907 0 8.6174883 7.04871853 15.627907 15.7132867 15.627907h15.7132867v8.392186l-16.4400262 16.352 16.4400262 16.352v8.392186h-31.4265734v31.255814h70.7097902v-31.255814h-31.4265734v-8.392186l12.513014-12.4450233h16.2946783v11.7209303z"/><filter id="b" height="103.6%" width="106.9%" x="-1.7%" y="-1.8%"><feOffset dx="4" dy="0" in="SourceAlpha" result="shadowOffsetOuter1"/><feColorMatrix in="shadowOffsetOuter1" type="matrix" values="0 0 0 0 0.0901960784   0 0 0 0 0.882352941   0 0 0 0 0.996078431  0 0 0 1 0"/></filter><path id="c" d="m55.027 52.0930233-12.513014-12.4450233v-8.392186h15.7132867c7.3066783 0 13.4453357-4.991814 15.1973672-11.7209303h17.5386468v20.8372093h-19.6416084v11.7209303zm-16.4413357 13.1157209-9.2590542-9.2087442 9.2590542-9.2087442 9.2603637 9.2087442zm-27.4982517-49.5808372c0-4.3093954 3.525014-7.81395351 7.8566433-7.81395351h39.2832168c4.3329388 0 7.8566434 3.50455811 7.8566434 7.81395351 0 4.3093953-3.5237046 7.8139535-7.8566434 7.8139535h-39.2832168c-4.3316293 0-7.8566433-3.5045582-7.8566433-7.8139535zm68.0909091 48.1860465h31.4265733v-15.627907h-31.4265733zm-68.0909091 40.3720935h54.9965035v-15.6279075h-54.9965035zm107.3741254-32.55814v-31.255814h-19.6416079v-28.6511628h-25.3952902c-1.7520315-6.72911625-7.8906889-11.7209302-15.1973672-11.7209302h-39.2832168c-8.6645681 0-15.71328667 7.0104186-15.71328667 15.627907 0 8.6174883 7.04871857 15.627907 15.71328667 15.627907h15.7132868v8.392186l-16.4400263 16.352 16.4400263 16.352v8.392186h-31.42657347v31.255814h70.70979017v-31.255814h-31.4265734v-8.392186l12.513014-12.4450233h16.2946783v11.7209303z"/><filter id="d" height="101.8%" width="101.7%" x="-.9%" y="-.9%"><feOffset dx="2" dy="0" in="SourceAlpha" result="shadowOffsetInner1"/><feComposite in="shadowOffsetInner1" in2="SourceAlpha" k2="-1" k3="1" operator="arithmetic" result="shadowInnerInner1"/><feColorMatrix in="shadowInnerInner1" type="matrix" values="0 0 0 0 1   0 0 0 0 0.152941176   0 0 0 0 0.321568627  0 0 0 0.5 0"/></filter><mask id="e" fill="#fff"><use fill="#fff" fill-rule="evenodd" xlink:href="#a"/></mask></defs><g fill="none" fill-rule="evenodd"><use fill="#000" filter="url(#b)" xlink:href="#a"/><use fill="#ff2752" fill-rule="evenodd" xlink:href="#a"/><g fill="#000" mask="url(#e)"><use fill-rule="evenodd" xlink:href="#c"/><use filter="url(#d)" xlink:href="#c"/></g></g></svg>

<?xml version="1.0" encoding="UTF-8"?>
<svg width="119px" height="112px" viewBox="0 0 119 112" version="1.1" xmlns="http://www.w3.org/2000/svg" xmlns:xlink="http://www.w3.org/1999/xlink">
    <!-- Generator: Sketch 49.1 (51147) - http://www.bohemiancoding.com/sketch -->
    <title>Architecture</title>
    <desc>Created with Sketch.</desc>
    <defs>
        <path d="M51.7962308,52.0930233 L39.2832168,39.648 L39.2832168,31.255814 L54.9965035,31.255814 C62.3031818,31.255814 68.4418392,26.264 70.1938706,19.5348837 L87.7325175,19.5348837 L87.7325175,40.372093 L68.0909091,40.372093 L68.0909091,52.0930233 L51.7962308,52.0930233 Z M35.3548951,65.2087442 L26.0958409,56 L35.3548951,46.7912558 L44.6152587,56 L35.3548951,65.2087442 Z M7.85664336,15.627907 C7.85664336,11.3185116 11.3816573,7.81395349 15.7132867,7.81395349 L54.9965035,7.81395349 C59.3294423,7.81395349 62.8531469,11.3185116 62.8531469,15.627907 C62.8531469,19.9373023 59.3294423,23.4418605 54.9965035,23.4418605 L15.7132867,23.4418605 C11.3816573,23.4418605 7.85664336,19.9373023 7.85664336,15.627907 Z M75.9475524,63.8139535 L107.374126,63.8139535 L107.374126,48.1860465 L75.9475524,48.1860465 L75.9475524,63.8139535 Z M7.85664336,104.186047 L62.8531469,104.186047 L62.8531469,88.5581395 L7.85664336,88.5581395 L7.85664336,104.186047 Z M115.230769,71.627907 L115.230769,40.372093 L95.5891608,40.372093 L95.5891608,11.7209302 L70.1938706,11.7209302 C68.4418392,4.99181395 62.3031818,0 54.9965035,0 L15.7132867,0 C7.04871853,0 0,7.0104186 0,15.627907 C0,24.2453953 7.04871853,31.255814 15.7132867,31.255814 L31.4265734,31.255814 L31.4265734,39.648 L14.9865472,56 L31.4265734,72.352 L31.4265734,80.744186 L0,80.744186 L0,112 L70.7097902,112 L70.7097902,80.744186 L39.2832168,80.744186 L39.2832168,72.352 L51.7962308,59.9069767 L68.0909091,59.9069767 L68.0909091,71.627907 L115.230769,71.627907 Z" id="path-1"></path>
        <filter x="-1.7%" y="-1.8%" width="106.9%" height="103.6%" filterUnits="objectBoundingBox" id="filter-3">
            <feOffset dx="4" dy="0" in="SourceAlpha" result="shadowOffsetOuter1"></feOffset>
            <feColorMatrix values="0 0 0 0 0.0901960784   0 0 0 0 0.882352941   0 0 0 0 0.996078431  0 0 0 1 0" type="matrix" in="shadowOffsetOuter1"></feColorMatrix>
        </filter>
        <path d="M55.027,52.0930233 L42.513986,39.648 L42.513986,31.255814 L58.2272727,31.255814 C65.533951,31.255814 71.6726084,26.264 73.4246399,19.5348837 L90.9632867,19.5348837 L90.9632867,40.372093 L71.3216783,40.372093 L71.3216783,52.0930233 L55.027,52.0930233 Z M38.5856643,65.2087442 L29.3266101,56 L38.5856643,46.7912558 L47.846028,56 L38.5856643,65.2087442 Z M11.0874126,15.627907 C11.0874126,11.3185116 14.6124266,7.81395349 18.9440559,7.81395349 L58.2272727,7.81395349 C62.5602115,7.81395349 66.0839161,11.3185116 66.0839161,15.627907 C66.0839161,19.9373023 62.5602115,23.4418605 58.2272727,23.4418605 L18.9440559,23.4418605 C14.6124266,23.4418605 11.0874126,19.9373023 11.0874126,15.627907 Z M79.1783217,63.8139535 L110.604895,63.8139535 L110.604895,48.1860465 L79.1783217,48.1860465 L79.1783217,63.8139535 Z M11.0874126,104.186047 L66.0839161,104.186047 L66.0839161,88.5581395 L11.0874126,88.5581395 L11.0874126,104.186047 Z M118.461538,71.627907 L118.461538,40.372093 L98.8199301,40.372093 L98.8199301,11.7209302 L73.4246399,11.7209302 C71.6726084,4.99181395 65.533951,0 58.2272727,0 L18.9440559,0 C10.2794878,0 3.23076923,7.0104186 3.23076923,15.627907 C3.23076923,24.2453953 10.2794878,31.255814 18.9440559,31.255814 L34.6573427,31.255814 L34.6573427,39.648 L18.2173164,56 L34.6573427,72.352 L34.6573427,80.744186 L3.23076923,80.744186 L3.23076923,112 L73.9405594,112 L73.9405594,80.744186 L42.513986,80.744186 L42.513986,72.352 L55.027,59.9069767 L71.3216783,59.9069767 L71.3216783,71.627907 L118.461538,71.627907 Z" id="path-4"></path>
        <filter x="-0.9%" y="-0.9%" width="101.7%" height="101.8%" filterUnits="objectBoundingBox" id="filter-5">
            <feOffset dx="2" dy="0" in="SourceAlpha" result="shadowOffsetInner1"></feOffset>
            <feComposite in="shadowOffsetInner1" in2="SourceAlpha" operator="arithmetic" k2="-1" k3="1" result="shadowInnerInner1"></feComposite>
            <feColorMatrix values="0 0 0 0 1   0 0 0 0 0.152941176   0 0 0 0 0.321568627  0 0 0 0.5 0" type="matrix" in="shadowInnerInner1"></feColorMatrix>
        </filter>
    </defs>
    <g id="Desktop" stroke="none" stroke-width="1" fill="none" fill-rule="evenodd">
        <g id="Training" transform="translate(-294.000000, -2168.000000)">
            <g id="Services" transform="translate(80.000000, 496.000000)">
                <g id="Architecture" transform="translate(96.000000, 1344.000000)">
                    <g id="card" transform="translate(0.000000, 192.000000)">
                        <g id="img" transform="translate(0.000000, 16.000000)">
                            <g id="Architecture" transform="translate(118.000000, 120.000000)">
                                <mask id="mask-2" fill="white">
                                    <use xlink:href="#path-1"></use>
                                </mask>
                                <g id="Mask">
                                    <use fill="black" fill-opacity="1" filter="url(#filter-3)" xlink:href="#path-1"></use>
                                    <use fill="#FF2752" fill-rule="evenodd" xlink:href="#path-1"></use>
                                </g>
                                <g id="Fill-1" mask="url(#mask-2)">
                                    <use fill="#000000" fill-rule="evenodd" xlink:href="#path-4"></use>
                                    <use fill="black" fill-opacity="1" filter="url(#filter-5)" xlink:href="#path-4"></use>
                                </g>
                            </g>
                        </g>
                    </g>
                </g>
            </g>
        </g>
    </g>
</svg>
